assets/icons/bowtie/1.22/uE699-view-full-screen.svg

<svg xmlns="http://www.w3.org/2000/svg" viewBox="0 0 448 448" enable-background="new 0 0 448 448"><path d="M448 128h-32v-96h-96v-32h128v128zm0 192h-32v96h-96v32h128v-128zm-416-288h96v-32h-128v128h32v-96zm96 384h-96v-96h-32v128h128v-32z"/></svg>

<svg xmlns="http://www.w3.org/2000/svg" viewBox="0 0 448 448"><path d="M448 128h-32V32h-96V0h128v128zm0 192h-32v96h-96v32h128V320zM32 32h96V0H0v128h32V32zm96 384H32v-96H0v128h128v-32z"/></svg>
